images/icons/code.svg

<svg xmlns="http://www.w3.org/2000/svg" xmlns:xlink="http://www.w3.org/1999/xlink" width="48px" height="48px" viewBox="0 0 48 48" version="1.1">
<defs>
<linearGradient id="linear0" gradientUnits="userSpaceOnUse" x1="1" y1="0" x2="47" y2="0" gradientTransform="matrix(0,-1,1,0,0.00221467,48.000001)">
<stop offset="0" style="stop-color:rgb(34.117647%,34.117647%,34.117647%);stop-opacity:1;"/>
<stop offset="1" style="stop-color:rgb(38.039216%,38.039216%,38.039216%);stop-opacity:1;"/>
</linearGradient>
</defs>
<g id="surface1">
<path style=" stroke:none;fill-rule:nonzero;fill:rgb(0%,0%,0%);fill-opacity:0.0196078;" d="M 1 43 L 1 43.25 C 1 45.464844 2.785156 47.25 5 47.25 L 43 47.25 C 45.214844 47.25 47 45.464844 47 43.25 L 47 43 C 47 45.214844 45.214844 47 43 47 L 5 47 C 2.785156 47 1 45.214844 1 43 Z M 1 43.5 L 1 44 C 1 46.214844 2.785156 48 5 48 L 43 48 C 45.214844 48 47 46.214844 47 44 L 47 43.5 C 47 45.714844 45.214844 47.5 43 47.5 L 5 47.5 C 2.785156 47.5 1 45.714844 1 43.5 Z M 1 43.5 "/>
<path style=" stroke:none;fill-rule:nonzero;fill:rgb(0%,0%,0%);fill-opacity:0.0509804;" d="M 1 43.25 L 1 43.5 C 1 45.714844 2.785156 47.5 5 47.5 L 43 47.5 C 45.214844 47.5 47 45.714844 47 43.5 L 47 43.25 C 47 45.464844 45.214844 47.25 43 47.25 L 5 47.25 C 2.785156 47.25 1 45.464844 1 43.25 Z M 1 43.25 "/>
<path style=" stroke:none;fill-rule:nonzero;fill:rgb(0%,0%,0%);fill-opacity:0.101961;" d="M 1 43 L 1 43.25 C 1 45.464844 2.785156 47.25 5 47.25 L 43 47.25 C 45.214844 47.25 47 45.464844 47 43.25 L 47 43 C 47 45.214844 45.214844 47 43 47 L 5 47 C 2.785156 47 1 45.214844 1 43 Z M 1 43 "/>
<path style=" stroke:none;fill-rule:nonzero;fill:url(#linear0);" d="M 1 43 L 1 5 C 1 2.789062 2.789062 1 5 1 L 43 1 C 45.210938 1 47 2.789062 47 5 L 47 43 C 47 45.210938 45.210938 47 43 47 L 5 47 C 2.789062 47 1 45.210938 1 43 Z M 1 43 "/>
<path style=" stroke:none;fill-rule:nonzero;fill:rgb(0%,0%,0%);fill-opacity:0.101961;" d="M 36 34 L 36 30 L 24 30 L 24 34 M 36 34 "/>
<path style=" stroke:none;fill-rule:nonzero;fill:rgb(0%,0%,0%);fill-opacity:0.101961;" d="M 14.746094 30 L 12.003906 27.09375 L 18.175781 22 L 12.003906 16.910156 L 14.746094 14 L 24.003906 22 M 14.746094 30 "/>
<path style=" stroke:none;fill-rule:nonzero;fill:rgb(86.27451%,86.27451%,86.27451%);fill-opacity:1;" d="M 36 33 L 36 29 L 24 29 L 24 33 M 36 33 "/>
<path style=" stroke:none;fill-rule:nonzero;fill:rgb(86.27451%,86.27451%,86.27451%);fill-opacity:1;" d="M 14.746094 29 L 12.003906 26.09375 L 18.175781 21 L 12.003906 15.910156 L 14.746094 13 L 24.003906 21 M 14.746094 29 "/>
<path style=" stroke:none;fill-rule:nonzero;fill:rgb(0%,0%,0%);fill-opacity:0.101961;" d="M 1 38.996094 L 1 42.996094 C 1 45.214844 2.785156 46.996094 5 46.996094 L 43 46.996094 C 45.214844 46.996094 47 45.214844 47 42.996094 L 47 38.996094 C 47 41.214844 45.214844 42.996094 43 42.996094 L 5 42.996094 C 2.785156 42.996094 1 41.214844 1 38.996094 Z M 1 38.996094 "/>
</g>
</svg>

<?xml version="1.0" encoding="UTF-8" standalone="no"?>
<svg
   xmlns:dc="http://purl.org/dc/elements/1.1/"
   xmlns:cc="http://creativecommons.org/ns#"
   xmlns:rdf="http://www.w3.org/1999/02/22-rdf-syntax-ns#"
   xmlns:svg="http://www.w3.org/2000/svg"
   xmlns="http://www.w3.org/2000/svg"
   xmlns:xlink="http://www.w3.org/1999/xlink"
   xmlns:sodipodi="http://sodipodi.sourceforge.net/DTD/sodipodi-0.dtd"
   xmlns:inkscape="http://www.inkscape.org/namespaces/inkscape"
   viewBox="0 0 48 48"
   id="svg2"
   version="1.1"
   inkscape:version="0.48.5 r10040"
   width="100%"
   height="100%"
   sodipodi:docname="code.svg">
  <metadata
     id="metadata65">
    <rdf:RDF>
      <cc:Work
         rdf:about="">
        <dc:format>image/svg+xml</dc:format>
        <dc:type
           rdf:resource="http://purl.org/dc/dcmitype/StillImage" />
      </cc:Work>
    </rdf:RDF>
  </metadata>
  <sodipodi:namedview
     pagecolor="#ffffff"
     bordercolor="#666666"
     borderopacity="1"
     objecttolerance="10"
     gridtolerance="10"
     guidetolerance="10"
     inkscape:pageopacity="0"
     inkscape:pageshadow="2"
     inkscape:window-width="640"
     inkscape:window-height="480"
     id="namedview63"
     showgrid="false"
     inkscape:zoom="4.9166667"
     inkscape:cx="24"
     inkscape:cy="24"
     inkscape:window-x="0"
     inkscape:window-y="0"
     inkscape:window-maximized="0"
     inkscape:current-layer="svg2" />
  <defs
     id="defs4">
    <linearGradient
       id="linearGradient3764"
       x1="1"
       x2="47"
       gradientUnits="userSpaceOnUse"
       gradientTransform="translate(-48.000001,0.00221467)">
      <stop
         stop-color="#575757"
         stop-opacity="1"
         id="stop7" />
      <stop
         offset="1"
         stop-color="#616161"
         stop-opacity="1"
         id="stop9" />
    </linearGradient>
    <clipPath
       id="clipPath-922018824">
      <g
         transform="translate(0,-1004.3622)"
         id="g12">
        <rect
           rx="4"
           y="1005.36"
           x="1"
           height="46"
           width="46"
           fill="#1890d0"
           id="rect14" />
      </g>
    </clipPath>
    <clipPath
       id="clipPath-934893249">
      <g
         transform="translate(0,-1004.3622)"
         id="g17">
        <rect
           rx="4"
           y="1005.36"
           x="1"
           height="46"
           width="46"
           fill="#1890d0"
           id="rect19" />
      </g>
    </clipPath>
    <linearGradient
       inkscape:collect="always"
       xlink:href="#linearGradient3764"
       id="linearGradient3676"
       gradientUnits="userSpaceOnUse"
       gradientTransform="translate(-48.000001,0.00221467)"
       x1="1"
       x2="47" />
  </defs>
  <path
     style="opacity:0.02000002"
     inkscape:connector-curvature="0"
     id="path23"
     d="m 1,43 0,0.25 c 0,2.216 1.784,4 4,4 l 38,0 c 2.216,0 4,-1.784 4,-4 L 47,43 c 0,2.216 -1.784,4 -4,4 L 5,47 C 2.784,47 1,45.216 1,43 z m 0,0.5 0,0.5 c 0,2.216 1.784,4 4,4 l 38,0 c 2.216,0 4,-1.784 4,-4 l 0,-0.5 c 0,2.216 -1.784,4 -4,4 l -38,0 c -2.216,0 -4,-1.784 -4,-4 z" />
  <path
     style="opacity:0.05"
     inkscape:connector-curvature="0"
     id="path25"
     d="m 1,43.25 0,0.25 c 0,2.216 1.784,4 4,4 l 38,0 c 2.216,0 4,-1.784 4,-4 l 0,-0.25 c 0,2.216 -1.784,4 -4,4 l -38,0 c -2.216,0 -4,-1.784 -4,-4 z" />
  <path
     style="opacity:0.1"
     inkscape:connector-curvature="0"
     id="path27"
     d="m 1,43 0,0.25 c 0,2.216 1.784,4 4,4 l 38,0 c 2.216,0 4,-1.784 4,-4 L 47,43 c 0,2.216 -1.784,4 -4,4 L 5,47 C 2.784,47 1,45.216 1,43 z" />
  <rect
     style="fill:url(#linearGradient3676);fill-opacity:1"
     id="rect31"
     transform="matrix(0,-1,1,0,0,0)"
     rx="4"
     y="1"
     x="-47"
     height="46"
     width="46" />
  <path
     d="m 36,34 0,-4 -12,0 0,4 m 12,0"
     id="path41"
     inkscape:connector-curvature="0"
     style="opacity:0.1;fill:#000000;fill-opacity:1;fill-rule:nonzero;stroke:none" />
  <path
     d="M 14.746,30 12.004,27.094 18.176,22 12.004,16.91 14.746,14 l 9.258,8 m -9.258,8"
     id="path43"
     inkscape:connector-curvature="0"
     style="opacity:0.1;fill:#000000;fill-opacity:1;fill-rule:nonzero;stroke:none" />
  <path
     d="m 36,33 0,-4 -12,0 0,4 m 12,0"
     id="path53"
     inkscape:connector-curvature="0"
     style="fill:#dcdcdc;fill-opacity:1;fill-rule:nonzero;stroke:none" />
  <path
     d="M 14.746,29 12.004,26.094 18.176,21 12.004,15.91 14.746,13 l 9.258,8 m -9.258,8"
     id="path55"
     inkscape:connector-curvature="0"
     style="fill:#dcdcdc;fill-opacity:1;fill-rule:nonzero;stroke:none" />
  <path
     d="m 1,38.9978 0,4 c 0,2.216 1.784,4 4,4 l 38,0 c 2.216,0 4,-1.784 4,-4 l 0,-4 c 0,2.216 -1.784,4 -4,4 l -38,0 c -2.216,0 -4,-1.784 -4,-4 z"
     id="path61"
     inkscape:connector-curvature="0"
     style="opacity:0.1" />
</svg>
